src/icons/asset-management/asset_icon.svg

<svg xmlns="http://www.w3.org/2000/svg" width="14" height="14" fill="none" viewBox="0 0 14 14">
  <path stroke="#212121" stroke-linecap="round" stroke-linejoin="round" stroke-width=".88" d="M2.3335 3.49968c0-.64434.52233-1.16667 1.16666-1.16667h7.00004c.6443 0 1.1666.52233 1.1666 1.16666v4.66667H2.3335V3.49968ZM11.6668 8.16699H2.3335l-.9058 1.81159c-.38785.77572.17622 1.68842 1.0435 1.68842h9.0579c.8673 0 1.4314-.9127 1.0435-1.68843l-.9058-1.81158Z"/>
</svg>

<svg width="14" height="14" viewBox="0 0 14 14" fill="none" xmlns="http://www.w3.org/2000/svg">
<path d="M2.3335 3.49968C2.3335 2.85534 2.85583 2.33301 3.50016 2.33301H10.5002C11.1445 2.33301 11.6668 2.85534 11.6668 3.49967V8.16634H2.3335V3.49968Z" stroke="#212121" stroke-width="0.88" stroke-linecap="round" stroke-linejoin="round"/>
<path d="M11.6668 8.16699H2.3335L1.4277 9.97858C1.03985 10.7543 1.60392 11.667 2.4712 11.667H11.5291C12.3964 11.667 12.9605 10.7543 12.5726 9.97857L11.6668 8.16699Z" stroke="#212121" stroke-width="0.88" stroke-linecap="round" stroke-linejoin="round"/>
</svg>
